Newaita-dark/apps/32/openra-d2k.svg

<?xml version="1.0" encoding="UTF-8"?>
<svg xmlns="http://www.w3.org/2000/svg" xmlns:xlink="http://www.w3.org/1999/xlink" width="32pt" height="32pt" viewBox="0 0 32 32" version="1.1">
<defs>
<radialGradient id="radial0" gradientUnits="userSpaceOnUse" cx="450.90894" cy="189.57936" fx="450.90894" fy="189.57936" r="21.166656" gradientTransform="matrix(0.00000017417,-0.0781325,-0.140638,-0.000000101539,44.523152,63.595332)">
<stop offset="0" style="stop-color:rgb(0%,0%,0%);stop-opacity:0.313725;"/>
<stop offset="0.222222" style="stop-color:rgb(0%,0%,0%);stop-opacity:0.27451;"/>
<stop offset="1" style="stop-color:rgb(0%,0%,0%);stop-opacity:0;"/>
</radialGradient>
<radialGradient id="radial1" gradientUnits="userSpaceOnUse" cx="450.90894" cy="189.57936" fx="450.90894" fy="189.57936" r="21.166656" gradientTransform="matrix(-0.00000017417,0.0781325,0.140638,0.000000101539,-12.770121,-7.527481)">
<stop offset="0" style="stop-color:rgb(0%,0%,0%);stop-opacity:0.313725;"/>
<stop offset="0.222222" style="stop-color:rgb(0%,0%,0%);stop-opacity:0.27451;"/>
<stop offset="1" style="stop-color:rgb(0%,0%,0%);stop-opacity:0;"/>
</radialGradient>
<radialGradient id="radial2" gradientUnits="userSpaceOnUse" cx="450.90894" cy="189.57936" fx="450.90894" fy="189.57936" r="21.166656" gradientTransform="matrix(-0.00000017417,-0.0781325,0.140638,-0.000000101539,-12.770121,63.595332)">
<stop offset="0" style="stop-color:rgb(0%,0%,0%);stop-opacity:0.313725;"/>
<stop offset="0.222222" style="stop-color:rgb(0%,0%,0%);stop-opacity:0.27451;"/>
<stop offset="1" style="stop-color:rgb(0%,0%,0%);stop-opacity:0;"/>
</radialGradient>
<radialGradient id="radial3" gradientUnits="userSpaceOnUse" cx="450.90894" cy="189.57936" fx="450.90894" fy="189.57936" r="21.166656" gradientTransform="matrix(0.00000017417,0.0781325,-0.140638,0.000000101539,44.52315,-7.527482)">
<stop offset="0" style="stop-color:rgb(0%,0%,0%);stop-opacity:0.313725;"/>
<stop offset="0.222222" style="stop-color:rgb(0%,0%,0%);stop-opacity:0.27451;"/>
<stop offset="1" style="stop-color:rgb(0%,0%,0%);stop-opacity:0;"/>
</radialGradient>
<linearGradient id="linear0" gradientUnits="userSpaceOnUse" x1="255.32306" y1="233.5" x2="255.32304" y2="254.66666" gradientTransform="matrix(0.0133601,0,0,0.062506,12.465386,13.438784)">
<stop offset="0" style="stop-color:rgb(0%,0%,0%);stop-opacity:0.27451;"/>
<stop offset="1" style="stop-color:rgb(0%,0%,0%);stop-opacity:0;"/>
</linearGradient>
<linearGradient id="linear1" gradientUnits="userSpaceOnUse" x1="317.5" y1="148.83333" x2="317.5" y2="43" gradientTransform="matrix(0.062506,0,0,0.062506,-13.23043,2.192933)">
<stop offset="0" style="stop-color:rgb(100%,43.921569%,26.27451%);stop-opacity:1;"/>
<stop offset="1" style="stop-color:rgb(100%,67.058824%,56.862745%);stop-opacity:1;"/>
</linearGradient>
<linearGradient id="linear2" gradientUnits="userSpaceOnUse" x1="254" y1="233.5" x2="254" y2="-168.66667" gradientTransform="matrix(0.062506,0,0,0.062506,-0.000000593246,13.438783)">
<stop offset="0" style="stop-color:rgb(55.294118%,43.137255%,38.823529%);stop-opacity:1;"/>
<stop offset="1" style="stop-color:rgb(63.137255%,53.333333%,49.803922%);stop-opacity:1;"/>
</linearGradient>
<linearGradient id="linear3" gradientUnits="userSpaceOnUse" x1="317.5" y1="148.83333" x2="317.5" y2="43" gradientTransform="matrix(0.062506,0,0,0.062506,1.323043,14.761841)">
<stop offset="0" style="stop-color:rgb(47.058824%,56.470588%,61.176471%);stop-opacity:1;"/>
<stop offset="1" style="stop-color:rgb(69.019608%,74.509804%,77.254902%);stop-opacity:1;"/>
</linearGradient>
</defs>
<g id="surface1">
<path style=" stroke:none;fill-rule:nonzero;fill:url(#radial0);" d="M 18.191406 28.035156 L 20.839844 28.035156 L 20.839844 26.710938 L 18.191406 26.710938 Z M 18.191406 28.035156 "/>
<path style=" stroke:none;fill-rule:nonzero;fill:url(#radial1);" d="M 13.5625 28.035156 L 10.914062 28.035156 L 10.914062 29.355469 L 13.5625 29.355469 Z M 13.5625 28.035156 "/>
<path style=" stroke:none;fill-rule:nonzero;fill:url(#radial2);" d="M 13.5625 28.035156 L 10.914062 28.035156 L 10.914062 26.710938 L 13.5625 26.710938 Z M 13.5625 28.035156 "/>
<path style=" stroke:none;fill-rule:nonzero;fill:url(#radial3);" d="M 18.191406 28.035156 L 20.839844 28.035156 L 20.839844 29.355469 L 18.191406 29.355469 Z M 18.191406 28.035156 "/>
<path style=" stroke:none;fill-rule:nonzero;fill:url(#linear0);" d="M 13.5625 27.703125 L 18.191406 27.703125 L 18.191406 29.355469 L 13.5625 29.355469 Z M 13.5625 27.703125 "/>
<path style=" stroke:none;fill-rule:nonzero;fill:url(#linear1);" d="M 6.613281 4.878906 C 8.441406 4.878906 9.921875 6.363281 9.921875 8.1875 C 9.921875 10.015625 8.441406 11.496094 6.613281 11.496094 C 4.789062 11.496094 3.308594 10.015625 3.308594 8.1875 C 3.308594 6.363281 4.789062 4.878906 6.613281 4.878906 Z M 6.613281 4.878906 "/>
<path style=" stroke:none;fill-rule:nonzero;fill:rgb(100%,100%,100%);fill-opacity:0.313725;" d="M 7.574219 6.242188 C 7.242188 6.242188 6.972656 6.332031 6.796875 6.566406 C 5.789062 7.914062 5.136719 6.71875 4.132812 7.085938 C 3.867188 7.136719 3.667969 7.113281 3.511719 7.042969 C 3.378906 7.398438 3.308594 7.785156 3.308594 8.1875 C 3.308594 8.238281 3.308594 8.292969 3.3125 8.34375 C 3.546875 8.503906 3.75 8.664062 3.859375 8.738281 C 4.960938 9.292969 5.476562 8.785156 6.613281 8.1875 C 7.386719 7.851562 8.710938 7.917969 9.910156 7.898438 C 9.878906 7.519531 9.78125 7.160156 9.632812 6.828125 C 9.601562 6.796875 9.570312 6.761719 9.539062 6.730469 C 8.832031 6.492188 8.121094 6.242188 7.574219 6.242188 Z M 7.574219 6.242188 "/>
<path style=" stroke:none;fill-rule:nonzero;fill:rgb(12.941176%,12.941176%,12.941176%);fill-opacity:1;" d="M 6.613281 4.785156 C 4.734375 4.785156 3.214844 6.304688 3.214844 8.1875 C 3.214844 10.070312 4.734375 11.589844 6.613281 11.589844 C 8.496094 11.589844 10.015625 10.070312 10.015625 8.1875 C 10.015625 6.304688 8.496094 4.785156 6.613281 4.785156 Z M 6.613281 4.972656 C 8.398438 4.972656 9.828125 6.40625 9.828125 8.1875 C 9.828125 9.96875 8.398438 11.402344 6.613281 11.402344 C 4.832031 11.402344 3.402344 9.96875 3.402344 8.1875 C 3.402344 6.40625 4.832031 4.972656 6.613281 4.972656 Z M 6.613281 4.972656 "/>
<path style=" stroke:none;fill-rule:nonzero;fill:url(#linear2);" d="M 15.875 2.894531 C 22.816406 2.894531 28.445312 8.523438 28.445312 15.464844 C 28.445312 22.40625 22.816406 28.035156 15.875 28.035156 C 8.933594 28.035156 3.308594 22.40625 3.308594 15.464844 C 3.308594 8.523438 8.933594 2.894531 15.875 2.894531 Z M 15.875 2.894531 "/>
<path style=" stroke:none;fill-rule:nonzero;fill:rgb(100%,100%,100%);fill-opacity:0.313725;" d="M 8.867188 5.019531 C 7.289062 6.078125 5.96875 7.480469 5.011719 9.125 C 5.828125 9.566406 6.613281 9.902344 7.277344 9.511719 C 8.121094 9.050781 10.554688 10.992188 11.246094 11.496094 C 13.890625 12.820312 15.125 11.605469 17.859375 10.171875 C 19.960938 9.253906 23.777344 9.585938 26.921875 9.441406 C 26.367188 8.425781 25.679688 7.496094 24.875 6.675781 C 22.15625 5.757812 19.429688 4.773438 18.292969 6.285156 C 15.875 9.511719 14.3125 6.644531 11.90625 7.527344 C 9.8125 7.933594 9.371094 6.433594 8.867188 5.019531 Z M 8.867188 5.019531 "/>
<path style=" stroke:none;fill-rule:nonzero;fill:rgb(100%,100%,100%);fill-opacity:0.313725;" d="M 27.34375 20.632812 C 26.019531 21.242188 25.054688 21.515625 23.816406 21.417969 C 22.378906 21.785156 23.679688 23.410156 22.492188 23.402344 C 21.027344 23.402344 15.875 26.710938 12.570312 24.726562 C 11.175781 24.445312 8.714844 24.039062 6.675781 24.042969 C 8.964844 26.5 12.234375 28.035156 15.875 28.035156 C 17.507812 28.035156 19.066406 27.726562 20.492188 27.164062 C 20.492188 27.164062 20.496094 27.164062 20.496094 27.164062 C 23.570312 25.425781 26.285156 22.992188 27.34375 20.632812 Z M 27.34375 20.632812 "/>
<path style=" stroke:none;fill-rule:nonzero;fill:rgb(100%,100%,100%);fill-opacity:0.313725;" d="M 6.636719 11.417969 C 6.429688 11.417969 6.203125 11.445312 5.953125 11.496094 C 5.511719 11.753906 5.789062 12.484375 5.292969 12.820312 C 5.082031 13.164062 4.394531 12.601562 3.773438 12.058594 C 3.46875 13.140625 3.308594 14.28125 3.308594 15.464844 C 3.308594 15.945312 3.335938 16.417969 3.386719 16.886719 C 4.726562 17.40625 6.175781 18.757812 7.277344 18.109375 C 8.121094 17.652344 10.554688 19.59375 11.246094 20.09375 C 13.890625 21.417969 15.125 20.203125 17.859375 18.773438 C 20.257812 17.726562 24.886719 18.304688 28.203125 17.949219 C 28.363281 17.144531 28.445312 16.316406 28.445312 15.464844 C 28.445312 14.535156 28.347656 13.632812 28.15625 12.761719 C 24.894531 12.179688 22.675781 13.457031 21.167969 15.464844 C 18.753906 18.691406 14.3125 15.246094 11.90625 16.125 C 8.132812 16.855469 9.730469 11.410156 6.636719 11.417969 Z M 6.636719 11.417969 "/>
<path style=" stroke:none;fill-rule:nonzero;fill:rgb(100%,100%,100%);fill-opacity:0.392157;" d="M 15.875 2.894531 C 8.914062 2.894531 3.308594 8.5 3.308594 15.464844 C 3.308594 15.546875 3.308594 15.628906 3.308594 15.707031 C 3.4375 8.859375 8.996094 3.382812 15.875 3.382812 C 22.757812 3.382812 28.3125 8.859375 28.441406 15.707031 C 28.445312 15.628906 28.445312 15.546875 28.445312 15.464844 C 28.445312 8.5 22.839844 2.894531 15.875 2.894531 Z M 15.875 2.894531 "/>
<path style=" stroke:none;fill-rule:nonzero;fill:rgb(0%,0%,0%);fill-opacity:0.235294;" d="M 15.875 28.035156 C 8.914062 28.035156 3.308594 22.429688 3.308594 15.464844 C 3.308594 15.382812 3.308594 15.304688 3.308594 15.222656 C 3.4375 22.070312 8.996094 27.546875 15.875 27.546875 C 22.757812 27.546875 28.3125 22.070312 28.441406 15.222656 C 28.445312 15.304688 28.445312 15.382812 28.445312 15.464844 C 28.445312 22.429688 22.839844 28.035156 15.875 28.035156 Z M 15.875 28.035156 "/>
<path style=" stroke:none;fill-rule:nonzero;fill:rgb(12.941176%,12.941176%,12.941176%);fill-opacity:1;" d="M 15.875 2.800781 C 8.863281 2.800781 3.214844 8.453125 3.214844 15.464844 C 3.214844 22.476562 8.863281 28.128906 15.875 28.128906 C 22.890625 28.128906 28.539062 22.476562 28.539062 15.464844 C 28.539062 8.453125 22.890625 2.800781 15.875 2.800781 Z M 15.875 2.988281 C 22.789062 2.988281 28.351562 8.550781 28.351562 15.464844 C 28.351562 22.378906 22.789062 27.941406 15.875 27.941406 C 8.964844 27.941406 3.402344 22.378906 3.402344 15.464844 C 3.402344 8.550781 8.964844 2.988281 15.875 2.988281 Z M 15.875 2.988281 "/>
<path style=" stroke:none;fill-rule:nonzero;fill:url(#linear3);" d="M 21.167969 17.449219 C 22.996094 17.449219 24.476562 18.929688 24.476562 20.757812 C 24.476562 22.582031 22.996094 24.066406 21.167969 24.066406 C 19.34375 24.066406 17.859375 22.582031 17.859375 20.757812 C 17.859375 18.929688 19.34375 17.449219 21.167969 17.449219 Z M 21.167969 17.449219 "/>
<path style=" stroke:none;fill-rule:nonzero;fill:rgb(100%,100%,100%);fill-opacity:0.313725;" d="M 22.125 18.808594 C 21.796875 18.808594 21.527344 18.898438 21.347656 19.136719 C 20.339844 20.480469 19.6875 19.285156 18.6875 19.652344 C 18.421875 19.707031 18.222656 19.683594 18.0625 19.613281 C 17.933594 19.96875 17.859375 20.355469 17.859375 20.757812 C 17.859375 20.808594 17.863281 20.859375 17.863281 20.910156 C 18.097656 21.070312 18.304688 21.230469 18.410156 21.308594 C 19.515625 21.859375 20.027344 21.355469 21.167969 20.757812 C 21.941406 20.421875 23.265625 20.488281 24.464844 20.464844 C 24.429688 20.089844 24.335938 19.730469 24.1875 19.398438 C 24.15625 19.363281 24.125 19.332031 24.09375 19.300781 C 23.382812 19.058594 22.675781 18.808594 22.125 18.808594 Z M 22.125 18.808594 "/>
<path style=" stroke:none;fill-rule:nonzero;fill:rgb(100%,100%,100%);fill-opacity:0.392157;" d="M 21.167969 17.449219 C 19.335938 17.449219 17.859375 18.925781 17.859375 20.757812 C 17.859375 20.796875 17.863281 20.839844 17.863281 20.882812 C 17.929688 19.105469 19.378906 17.699219 21.167969 17.699219 C 22.960938 17.699219 24.410156 19.105469 24.472656 20.882812 C 24.476562 20.839844 24.476562 20.796875 24.476562 20.757812 C 24.476562 18.925781 23 17.449219 21.167969 17.449219 Z M 21.167969 17.449219 "/>
<path style=" stroke:none;fill-rule:nonzero;fill:rgb(12.941176%,12.941176%,12.941176%);fill-opacity:1;" d="M 21.167969 17.355469 C 19.285156 17.355469 17.765625 18.875 17.765625 20.757812 C 17.765625 22.640625 19.285156 24.160156 21.167969 24.160156 C 23.050781 24.160156 24.570312 22.640625 24.570312 20.757812 C 24.570312 18.875 23.050781 17.355469 21.167969 17.355469 Z M 21.167969 17.542969 C 22.949219 17.542969 24.382812 18.976562 24.382812 20.757812 C 24.382812 22.539062 22.949219 23.972656 21.167969 23.972656 C 19.386719 23.972656 17.953125 22.539062 17.953125 20.757812 C 17.953125 18.976562 19.386719 17.542969 21.167969 17.542969 Z M 21.167969 17.542969 "/>
<path style=" stroke:none;fill-rule:nonzero;fill:rgb(0%,0%,0%);fill-opacity:0.235294;" d="M 17.871094 21.003906 C 17.863281 21.085938 17.859375 21.167969 17.859375 21.253906 C 17.859375 23.085938 19.335938 24.5625 21.167969 24.5625 C 23 24.5625 24.476562 23.085938 24.476562 21.253906 C 24.476562 21.167969 24.472656 21.085938 24.46875 21.003906 C 24.339844 22.722656 22.917969 24.066406 21.167969 24.066406 C 19.417969 24.066406 17.996094 22.722656 17.871094 21.003906 Z M 17.871094 21.003906 "/>
</g>
</svg>

<svg xmlns="http://www.w3.org/2000/svg" width="32pt" height="32pt" viewBox="0 0 32 32"><defs><radialGradient id="a" gradientUnits="userSpaceOnUse" cx="450.909" cy="189.579" fx="450.909" fy="189.579" r="21.167" gradientTransform="matrix(0 -.07813 -.14064 0 44.523 63.595)"><stop offset="0" stop-opacity=".314"/><stop offset=".222" stop-opacity=".275"/><stop offset="1" stop-opacity="0"/></radialGradient><radialGradient id="b" gradientUnits="userSpaceOnUse" cx="450.909" cy="189.579" fx="450.909" fy="189.579" r="21.167" gradientTransform="matrix(0 .07813 .14064 0 -12.77 -7.527)"><stop offset="0" stop-opacity=".314"/><stop offset=".222" stop-opacity=".275"/><stop offset="1" stop-opacity="0"/></radialGradient><radialGradient id="c" gradientUnits="userSpaceOnUse" cx="450.909" cy="189.579" fx="450.909" fy="189.579" r="21.167" gradientTransform="matrix(0 -.07813 .14064 0 -12.77 63.595)"><stop offset="0" stop-opacity=".314"/><stop offset=".222" stop-opacity=".275"/><stop offset="1" stop-opacity="0"/></radialGradient><radialGradient id="d" gradientUnits="userSpaceOnUse" cx="450.909" cy="189.579" fx="450.909" fy="189.579" r="21.167" gradientTransform="matrix(0 .07813 -.14064 0 44.523 -7.527)"><stop offset="0" stop-opacity=".314"/><stop offset=".222" stop-opacity=".275"/><stop offset="1" stop-opacity="0"/></radialGradient><linearGradient id="e" gradientUnits="userSpaceOnUse" x1="255.323" y1="233.5" x2="255.323" y2="254.667" gradientTransform="matrix(.01336 0 0 .0625 12.465 13.439)"><stop offset="0" stop-opacity=".275"/><stop offset="1" stop-opacity="0"/></linearGradient><linearGradient id="f" gradientUnits="userSpaceOnUse" x1="317.5" y1="148.833" x2="317.5" y2="43" gradientTransform="matrix(.0625 0 0 .0625 -13.23 2.193)"><stop offset="0" stop-color="#ff7043"/><stop offset="1" stop-color="#ffab91"/></linearGradient><linearGradient id="g" gradientUnits="userSpaceOnUse" x1="254" y1="233.5" x2="254" y2="-168.667" gradientTransform="matrix(.0625 0 0 .0625 0 13.439)"><stop offset="0" stop-color="#8d6e63"/><stop offset="1" stop-color="#a1887f"/></linearGradient><linearGradient id="h" gradientUnits="userSpaceOnUse" x1="317.5" y1="148.833" x2="317.5" y2="43" gradientTransform="matrix(.0625 0 0 .0625 1.323 14.762)"><stop offset="0" stop-color="#78909c"/><stop offset="1" stop-color="#b0bec5"/></linearGradient></defs><path d="M18.191 28.035h2.649v-1.324H18.19zm0 0" fill="url(#a)"/><path d="M13.563 28.035h-2.649v1.32h2.649zm0 0" fill="url(#b)"/><path d="M13.563 28.035h-2.649v-1.324h2.649zm0 0" fill="url(#c)"/><path d="M18.191 28.035h2.649v1.32H18.19zm0 0" fill="url(#d)"/><path d="M13.563 27.703h4.628v1.652h-4.628zm0 0" fill="url(#e)"/><path d="M6.613 4.879a3.308 3.308 0 1 1 .002 6.62 3.308 3.308 0 0 1-.002-6.62zm0 0" fill="url(#f)"/><path d="M7.574 6.242c-.332 0-.601.09-.777.324-1.008 1.348-1.66.153-2.664.52-.266.05-.465.027-.621-.043a3.267 3.267 0 0 0-.2 1.3c.235.16.438.321.547.395 1.102.555 1.618.047 2.754-.55.774-.336 2.098-.27 3.297-.29a3.278 3.278 0 0 0-.277-1.07l-.094-.098c-.707-.238-1.418-.488-1.965-.488zm0 0" fill="#fff" fill-opacity=".314"/><path d="M6.613 4.785a3.397 3.397 0 0 0-3.398 3.402 3.397 3.397 0 0 0 3.398 3.403 3.398 3.398 0 0 0 3.403-3.402 3.398 3.398 0 0 0-3.403-3.403zm0 .188a3.205 3.205 0 0 1 3.215 3.215 3.205 3.205 0 0 1-3.215 3.214 3.204 3.204 0 0 1-3.21-3.214 3.204 3.204 0 0 1 3.21-3.215zm0 0" fill="#212121"/><path d="M15.875 2.895c6.941 0 12.57 5.628 12.57 12.57 0 6.941-5.629 12.57-12.57 12.57-6.941 0-12.566-5.629-12.566-12.57 0-6.942 5.625-12.57 12.566-12.57zm0 0" fill="url(#g)"/><path d="M8.867 5.02a12.543 12.543 0 0 0-3.855 4.105c.816.441 1.601.777 2.265.387.844-.461 3.278 1.48 3.97 1.984 2.644 1.324 3.878.11 6.612-1.324 2.102-.918 5.918-.586 9.063-.73a12.502 12.502 0 0 0-2.047-2.766c-2.719-.918-5.445-1.903-6.582-.39-2.418 3.226-3.98.359-6.387 1.241-2.094.407-2.535-1.093-3.039-2.507zm0 0M27.344 20.633c-1.324.61-2.29.883-3.528.785-1.437.367-.136 1.992-1.324 1.984-1.465 0-6.617 3.309-9.922 1.325-1.394-.282-3.855-.688-5.894-.684a12.525 12.525 0 0 0 9.199 3.992c1.633 0 3.191-.308 4.617-.87h.004c3.074-1.74 5.79-4.173 6.848-6.532zm0 0" fill="#fff" fill-opacity=".314"/><path d="M6.637 11.418c-.207 0-.434.027-.684.078-.441.258-.164.988-.66 1.324-.211.344-.898-.218-1.52-.761a12.539 12.539 0 0 0-.464 3.406c0 .48.027.953.078 1.422 1.34.52 2.789 1.87 3.89 1.222.844-.457 3.278 1.485 3.97 1.985 2.644 1.324 3.878.11 6.612-1.32 2.399-1.047 7.028-.47 10.344-.825.16-.804.242-1.633.242-2.484 0-.93-.097-1.832-.289-2.703-3.261-.582-5.48.695-6.988 2.703-2.414 3.226-6.855-.219-9.262.66-3.773.73-2.176-4.715-5.27-4.707zm0 0" fill="#fff" fill-opacity=".314"/><path d="M15.875 2.895a12.54 12.54 0 0 0-12.566 12.57v.242A12.543 12.543 0 0 1 15.875 3.383a12.54 12.54 0 0 1 12.566 12.324c.004-.078.004-.16.004-.242 0-6.965-5.605-12.57-12.57-12.57zm0 0" fill="#fff" fill-opacity=".392"/><path d="M15.875 28.035a12.54 12.54 0 0 1-12.566-12.57v-.242a12.543 12.543 0 0 0 12.566 12.324 12.54 12.54 0 0 0 12.566-12.324 12.542 12.542 0 0 1-12.566 12.813zm0 0" fill-opacity=".235"/><path d="M15.875 2.8a12.638 12.638 0 0 0-12.66 12.665 12.638 12.638 0 0 0 12.66 12.664 12.64 12.64 0 0 0 12.664-12.664A12.64 12.64 0 0 0 15.875 2.8zm0 .188a12.447 12.447 0 0 1 12.477 12.477A12.447 12.447 0 0 1 15.875 27.94 12.446 12.446 0 0 1 3.402 15.465 12.446 12.446 0 0 1 15.875 2.988zm0 0" fill="#212121"/><path d="M21.168 17.45a3.308 3.308 0 1 1 .002 6.614 3.308 3.308 0 0 1-.002-6.615zm0 0" fill="url(#h)"/><path d="M22.125 18.809c-.328 0-.598.09-.777.328-1.008 1.343-1.66.148-2.66.515-.266.055-.465.032-.625-.039a3.358 3.358 0 0 0-.204 1.145c0 .05.004.101.004.152.235.16.442.32.547.399 1.106.55 1.617.046 2.758-.551.773-.336 2.098-.27 3.297-.293a3.382 3.382 0 0 0-.277-1.067c-.032-.035-.063-.066-.094-.097-.711-.242-1.418-.492-1.969-.492zm0 0" fill="#fff" fill-opacity=".314"/><path d="M21.168 17.355a3.398 3.398 0 0 0-3.402 3.403 3.398 3.398 0 0 0 3.402 3.402 3.398 3.398 0 0 0 3.402-3.402 3.398 3.398 0 0 0-3.402-3.403zm0 .188a3.208 3.208 0 0 1 3.215 3.215 3.208 3.208 0 0 1-3.215 3.215 3.208 3.208 0 0 1-3.215-3.215 3.208 3.208 0 0 1 3.215-3.215zm0 0" fill="#212121"/></svg>
